X:1
T:Avant que partiez
T:Clément Janequin
T:Source : Livre VII de chansons nouvelles à 4 ---Paris---N.du Chemin---1550. Editor : André Vierendeels (02/02/18). Notes : Original clefs : C1, C3, C4, F4 Original note values have been halved Editorial accidentals above the stave
T:Avant que partiez
T:©
T:©
T:©
T:©
C:Clément Janequin
Z:©
%%score [ 1 [ 2 3 ] 4 ]
L:1/8
Q:1/4=120
M:2/2
K:F
V:1 treble nm="Alto" snm="A"
V:2 treble-8 nm="Tenor 1" snm="T 1"
V:3 treble-8 nm="Tenor 2" snm="T 2"
V:4 bass nm="Bass" snm="B"
V:1
 A4 G2 F2 | A2 A2 B2 B2 | A2 F2 B4 | G2 G2 B4 |[M:2/4] A2 A2 | G3 F/E/ |1[M:2/2] F4 E4 :|2 %7
w: A- vant que|par- tiez de ce|lieu, a- my-|e, que tant|ie de-|si- * *|* re,|
w: De loing ie|vous man- de'un a-|dieu, ne pou-|vant al- ler|où i'a-||spi- re,|
[M:2/4] G4 ||[M:2/2] F2 F2 E2 C2 | D3 F E2 E2 | D2 D2 z4 | z2 B2 G2 F2 | c3 B A2 G2 | F2 D2 G3 G | %14
w: i'a-|spi- r'et nous veulx|con- tre let- tr'es-|cri- pre,|et vous veulx|con- tre let- tr'es-|cri- pre, con- tre|
w: |||||||
 F2 E2 D4 | C2 G2 G2 G2 | A2 G2 F2 c2 | B2 A4 G2 | A2 F2 E2 C2 | D3 F E2 E2 | D2 D2 z4 | %21
w: let- tr'es- cri-|pre, af- fin que,|mais que ie vous|voy- * *|e, a- lors i'ay-|e plus à vous|di- re,|
w: |||||||
 z2 B2 G2 F2 | c3 B A2 G2 | F2 D2 G2 GG | F2 E2 D4 | C2 C2 D2 E2 | F2 G2 C2 C2 | F2 EE F2 G2 | %28
w: a- lors i'ay-|e plus à vous|di- re, i'ay- e plus|à vous di-|re, à le com-|pter à plus de|ioy- e, à le com-|
w: |||||||
 AAGE F4 | E4 z4 | z4 z2 F2 | G2 A2 B2 B2 | A2 A2 G4 | F2 B2 AA G2- | G2 F4 E2 | F8 |] %36
w: pter à plus de ioy-|e,|à|le com- pter à|plus de joy-|e, à plus de ioy-||e.|
w: ||||||||
V:2
 f4 d2 f2 | f2 f2 g2 g2 | c2 A2 d4 | c2 c2 f4- |[M:2/4] f4 | d2 d2 |1[M:2/2] d4 c4 :|2 %7
w: A- vant que|par- tiez de ce|lieu, a- my-|e, que tant|_|ie de-|si- re,|
w: De loing ie|vous man- de'un a-|dieu, ne pou-|vant al- ler|_|où i'a-|spi- re,|
[M:2/4] d2 d2 ||[M:2/2] d4 c4 | z4 z2 A2 | F2 F2 c3 c | d2 f2 e2 dd | c2 A2 F2 G2 | A3 F c2 B2 | %14
w: où i'a-|spi- re,|et|vous veulx con- tre|let- tr'es- cri- pre, et|vous veulx con- tre|let- tr'es- cri- pre,|
w: |||||||
 BAGF G4 | G2 e2 e2 e2 | f2 e2 d2 c2 | f4 d4- | d4 z4 | z4 z2 A2 | F3 F c2 c2 | d2 f2 e2 dd | %22
w: es- * * * cri-|pre, af- fin que,|mais que ie vous|voy- e,|_|a-|lors i'ay- e plus|à vous di- re, a-|
w: ||||||||
 c2 A2 F2 G2 | A3 F c2 B2- | BAGF G4 | G4 z4 | z2 G2 A2 A2 | B2 z2 z2 G2 | c2 c2 d2 d2 | %29
w: lors i'ay- e plus|à vous dir- *||re,|à le com-|pter, à|le com- pter à|
w: |||||||
 GG A2 G2 c2 | d2 e2 f3 e | d2 c2 B2 GG | c2 c2 B2 c2 | d2 d2 f2 e2 | d3 c c4 | c8 |] %36
w: plus de ioy- e, à|le com- pter à|plus de ioy- e, à|plus de ioy- e,|à plus de ioy-|e, de ioy-|e.|
w: |||||||
V:3
 c4 B2 A2 | d2 c2 d2 e2 | f2 c2 f4 | e2 e2 d4 |[M:2/4] c2 A2 | B4 |1[M:2/2] A8 :|2[M:2/4] B4 || %8
w: A- vant que|par- tiez de ce|lieu, a- my-|e, que tant|ie de-|si-|re,|spi-|
w: De loing ie|vous man- de'un a-|dieu, ne pou-|vant al- ler|où i'a-|spi-|re,||
[M:2/2] A4 z2 A2 | G2 F2 c3 c | d2 f2 e4 | d4 z2 B2 | A2 F2 c3 c | d2 f2 e2 d2- | %14
w: re et|vous veulx con- tre|let- tr'es- cri-|pre, et|vous veulx con- tre|let- tr'es- cri- *|
w: ||||||
"^-natural" dc c4 B2 | c4 z2 c2 | c2 c2 A2 A2 | d2 c2 B4 | A4 A4 | G2 F2 c3 c | d2 f2 e4 | %21
w: |re, af-|fin que, mais que|ie vous voy-|e, a-|lors i'ay- e plus|à vous di-|
w: |||||||
 d4 z2 B2 | A2 F2 c3 c | d2 f2 e2 d2- |"^-natural" dc c4 B2 | c4 z2 c2 | d2 e2 f3 e | d2 c2 B4 | %28
w: re, a-|lors i'ay- e plus|à vous di- *||re, à|le com- pter à|plus de ioy-|
w: |||||||
 A2 z G A2 B2 | c2 c2 B2 A2 | G4 F4 | z2 C2 D2 E2 | F4 z2 G2 | A2 B2 c2 c2 | B2 A2 G4 | F8 |] %36
w: e, à le com-|pter à plus de|ioy- e,|à le com-|pter à|le com- pter à|plus de ioy-|e.|
w: ||||||||
V:4
 F,4 G,2 D,2 | D,2 A,2 G,2 G,2 | F,2 F,2 B,,4 | C,4 B,,C,D,E, |[M:2/4] F,2 F,2 | G,2 G,2 |1 %6
w: A- vant que|par- tiez de ce|lieu, a- my-|e, que _ _ _|_ tant|ie de-|
w: De loing ie|vous man- de'un a-|dieu, ne pou-|vant al- * * *|* ler|où i'a-|
[M:2/2] D,4 A,,4 :|2[M:2/4] G,2 G,2 ||[M:2/2] D,4 A,,4 | z2 D,2 C,2 A,,2 | B,,3 D, C,2 A,,2 | %11
w: si- re,|où i'a-|spi- re,|et vous veulx|con- tre let- tr'es|
w: spi- re,|||||
 B,,4 C,2 z2 | z2 F,4 E,2 | D,4 C,2 G,,2 | B,,2 C,2 G,,4 | C,4 z2 C,2 | F,2 C,2 D,2 A,,2 | %17
w: cri- pre,|et vous|veulx con- tre|let- tr'es- cri-|pre, a-|fin que, mais que|
w: ||||||
 B,,2 F,2 G,4 | D,2 D,2 C,2 A,,2 | B,,2 D,2 C,2 A,,2 | B,,3 D, C,2 A,,2 | B,,4 C,2 z2 | %22
w: ie vous voy-|e, a- lors i'ay-|e, a- lors i'ay-|e plus à vous|di- re,|
w: |||||
 z2 F,4 E,2 | D,4 C,2 G,,2 | B,,2 C,2 G,,4 | C,4 z2 A,,2 | D,2 C,2 F,4 | z2 C,2 D,2 E,2 | %28
w: a- lors|i'ay- e plus|à vous di-|re, à|le com- pter|a le com-|
w: ||||||
 F,2 E,2 D,2 D,2 | C,2 A,,2 z2 A,,2 | B,,2 C,2 D,3 C, | B,,2 A,,2 G,,4 | F,,2 F,2 G,2 E,2 | %33
w: pter à plus de|ioy- e, a-|le com- pter à|plus de ioy-|e, a- le com-|
w: |||||
 D,2 G,,G, F,2 C,2 | D,2 F,2 C,4 | F,,8 |] %36
w: pter à plus de ioy-|e, de ioy-|e.|
w: |||

